img/folder-open.svg

<svg fill="none" height="24" viewBox="0 0 24 24" width="24" xmlns="http://www.w3.org/2000/svg"><g stroke="#fff" stroke-linecap="round" stroke-linejoin="round" stroke-width="2"><path d="m3 10.3346v-3.99996c0-1.47334 1.19333-2.66667 2.66667-2.66667h2.60133c.80933 0 1.57333.36667 2.08.99733l.804 1.00267h7.1813c1.4734 0 2.6667 1.19333 2.6667 2.66667v1.99996"/><path d="m3.60257 10.332h16.79463c1.3147 0 2.2707 1.2454 1.932 2.5147l-1.468 5.5053c-.3106 1.168-1.368 1.98-2.576 1.98h-12.56929c-1.208 0-2.26534-.812-2.576-1.98l-1.468-5.5053c-.33867-1.2693.61866-2.5147 1.932-2.5147z"/></g></svg>

<svg width="24" height="24" viewBox="0 0 24 24" fill="none" xmlns="http://www.w3.org/2000/svg">
<path d="M3 10.3346V6.33464C3 4.8613 4.19333 3.66797 5.66667 3.66797H8.268C9.07733 3.66797 9.84133 4.03464 10.348 4.6653L11.152 5.66797H18.3333C19.8067 5.66797 21 6.8613 21 8.33464V10.3346" stroke="white" stroke-width="2" stroke-linecap="round" stroke-linejoin="round"/>
<path d="M3.60257 10.332H20.3972C21.7119 10.332 22.6679 11.5774 22.3292 12.8467L20.8612 18.352C20.5506 19.52 19.4932 20.332 18.2852 20.332H5.71591C4.50791 20.332 3.45057 19.52 3.13991 18.352L1.67191 12.8467C1.33324 11.5774 2.29057 10.332 3.60391 10.332H3.60257Z" stroke="white" stroke-width="2" stroke-linecap="round" stroke-linejoin="round"/>
</svg>
